assets/img/help/help-specific-agencies.svg

<svg width="69" height="69" viewBox="0 0 69 69" fill="none" xmlns="http://www.w3.org/2000/svg">
<path d="M67.8382 34.5001C67.8382 52.9116 52.9121 67.8371 34.5 67.8371C16.0878 67.8371 1.16174 52.9116 1.16174 34.5001C1.16174 16.0885 16.0878 1.16296 34.5 1.16296C52.9121 1.16296 67.8382 16.0885 67.8382 34.5001Z" fill="#EBF3FA"/>
<path fill-rule="evenodd" clip-rule="evenodd" d="M0 34.5C0 15.4451 15.4473 0 34.5 0C53.5527 0 69 15.4451 69 34.5H66.6764C66.6764 16.7318 52.2717 2.32585 34.5 2.32585C16.7283 2.32585 2.32358 16.7318 2.32358 34.5H0Z" fill="#A8B6C6"/>
<path d="M5.70776 25.5141H62.5343V51.4155C62.5343 54.6268 59.9335 57.2301 56.7253 57.2301H11.5167C8.30851 57.2301 5.70776 54.6268 5.70776 51.4155V25.5141Z" fill="white"/>
<path d="M6.90759 13.6648C6.90759 11.0957 8.98819 9.01306 11.5547 9.01306H57.4453C60.0118 9.01306 62.0924 11.0957 62.0924 13.6648V20.378H6.90759V13.6648Z" fill="#EBF3FA"/>
<path fill-rule="evenodd" clip-rule="evenodd" d="M11.5166 6.81848C7.6668 6.81848 4.5459 9.94244 4.5459 13.796V47.2063C5.2085 48.766 5.98938 50.2633 6.87731 51.6871C6.87211 51.597 6.86948 51.5062 6.86948 51.4148V13.796C6.86948 11.227 8.95008 9.14433 11.5166 9.14433H57.4829C60.0495 9.14433 62.1301 11.227 62.1301 13.796V51.4148C62.1301 51.5065 62.1274 51.5977 62.1222 51.6882C63.0101 50.2646 63.791 48.7673 64.4537 47.2077V13.796C64.4537 9.94243 61.3328 6.81848 57.4829 6.81848H11.5166ZM56.5736 58.3923C57.4661 57.5675 58.3123 56.6934 59.1078 55.7742C58.602 55.9632 58.0545 56.0665 57.4829 56.0665H11.5166C10.9454 56.0665 10.3982 55.9633 9.8927 55.7745C10.6881 56.6936 11.5342 57.5676 12.4266 58.3923H56.5736Z" fill="#112E51"/>
<path d="M24.9945 43.6101C24.9945 44.2524 25.5147 44.773 26.1563 44.773H42.8438C43.4854 44.773 44.0056 44.2524 44.0056 43.6101V42.7643C44.0056 42.1221 43.4854 41.6014 42.8438 41.6014H26.1563C25.5147 41.6014 24.9945 42.1221 24.9945 42.7643V43.6101Z" fill="#A8B6C6"/>
<path d="M26.579 48.3666C26.579 49.0089 27.0991 49.5295 27.7408 49.5295H41.2597C41.9014 49.5295 42.4215 49.0089 42.4215 48.3666V47.5209C42.4215 46.8786 41.9014 46.3579 41.2597 46.3579H27.7408C27.0991 46.3579 26.579 46.8786 26.579 47.5209V48.3666Z" fill="#A8B6C6"/>
<path fill-rule="evenodd" clip-rule="evenodd" d="M33.8888 13.283C34.0914 13.2732 34.2952 13.2682 34.5002 13.2682C34.7051 13.2682 34.9089 13.2732 35.1115 13.283L35.0554 14.4446C34.8715 14.4357 34.6864 14.4312 34.5002 14.4312C34.3139 14.4312 34.1288 14.4357 33.9449 14.4446L33.8888 13.283ZM31.4713 13.6394C31.8644 13.5411 32.2648 13.4616 32.6715 13.4017L32.8406 14.5522C32.4718 14.6065 32.1089 14.6786 31.7528 14.7676L31.4713 13.6394ZM36.3288 13.4017C36.7355 13.4616 37.1359 13.5411 37.529 13.6394L37.2475 14.7676C36.8914 14.6786 36.5285 14.6065 36.1597 14.5522L36.3288 13.4017ZM29.1701 14.4636C29.5373 14.2895 29.9144 14.1327 30.3003 13.9945L30.6917 15.0894C30.3421 15.2147 30.0004 15.3567 29.6675 15.5145L29.1701 14.4636ZM38.7 13.9945C39.0859 14.1327 39.463 14.2895 39.8302 14.4636L39.3328 15.5145C38.9999 15.3567 38.6582 15.2147 38.3086 15.0894L38.7 13.9945ZM27.0754 15.7228C27.4022 15.4798 27.7414 15.2524 28.0917 15.0417L28.69 16.0386C28.3722 16.2297 28.0647 16.4359 27.7682 16.6563L27.0754 15.7228ZM40.9086 15.0417C41.2589 15.2524 41.5981 15.4798 41.9249 15.7228L41.2321 16.6563C40.9356 16.4359 40.6281 16.2297 40.3103 16.0386L40.9086 15.0417ZM25.2658 17.3654C25.5398 17.063 25.8284 16.7741 26.1305 16.4999L26.911 17.3613C26.6369 17.6101 26.375 17.8723 26.1264 18.1466L25.2658 17.3654ZM42.8698 16.4999C43.1719 16.7741 43.4605 17.063 43.7345 17.3654L42.8739 18.1466C42.6253 17.8723 42.3634 17.6101 42.0893 17.3613L42.8698 16.4999ZM23.8091 19.3286C24.0196 18.9778 24.2467 18.6384 24.4895 18.3112L25.4221 19.0047C25.2019 19.3014 24.9959 19.6093 24.805 19.9274L23.8091 19.3286ZM44.5108 18.3112C44.7536 18.6384 44.9807 18.9778 45.1912 19.3286L44.1953 19.9274C44.0044 19.6093 43.7984 19.3014 43.5782 19.0047L44.5108 18.3112ZM22.7629 21.5393C22.901 21.153 23.0576 20.7755 23.2315 20.408L24.2815 20.9059C24.1238 21.239 23.9819 21.5811 23.8568 21.9311L22.7629 21.5393ZM45.7688 20.408C45.9427 20.7755 46.0993 21.153 46.2374 21.5393L45.1436 21.9311C45.0184 21.5811 44.8765 21.239 44.7189 20.9059L45.7688 20.408ZM22.1706 23.9128C22.2305 23.5057 22.31 23.1049 22.4081 22.7114L23.5353 22.9932C23.4463 23.3497 23.3743 23.7129 23.3201 24.0821L22.1706 23.9128ZM46.5922 22.7114C46.6904 23.1049 46.7698 23.5057 46.8297 23.9128L45.6802 24.0821C45.626 23.7129 45.554 23.3497 45.465 22.9932L46.5922 22.7114ZM22.0374 25.7432C22.0374 25.5381 22.0423 25.3341 22.0521 25.1313L23.2125 25.1875C23.2036 25.3716 23.1991 25.5568 23.1991 25.7432C23.1991 25.9296 23.2036 26.1149 23.2125 26.299L22.0521 26.3551C22.0423 26.1524 22.0374 25.9483 22.0374 25.7432ZM46.9482 25.1313C46.958 25.3341 46.963 25.5381 46.963 25.7432C46.963 25.9483 46.958 26.1524 46.9482 26.3551L45.7878 26.299C45.7967 26.1149 45.8012 25.9296 45.8012 25.7432C45.8012 25.5568 45.7967 25.3716 45.7878 25.1875L46.9482 25.1313ZM22.4081 28.775C22.31 28.3816 22.2305 27.9808 22.1706 27.5736L23.3201 27.4044C23.3743 27.7735 23.4463 28.1368 23.5353 28.4933L22.4081 28.775ZM46.8297 27.5736C46.7698 27.9808 46.6904 28.3816 46.5922 28.775L45.465 28.4933C45.554 28.1368 45.626 27.7735 45.6802 27.4044L46.8297 27.5736ZM23.2315 31.0785C23.0576 30.7109 22.901 30.3335 22.7629 29.9472L23.8568 29.5554C23.9819 29.9054 24.1238 30.2474 24.2815 30.5806L23.2315 31.0785ZM46.2374 29.9472C46.0993 30.3335 45.9427 30.7109 45.7688 31.0785L44.7189 30.5806C44.8765 30.2474 45.0184 29.9054 45.1436 29.5554L46.2374 29.9472ZM24.4895 33.1752C24.2467 32.8481 24.0196 32.5086 23.8091 32.1579L24.805 31.5591C24.9959 31.8771 25.2019 32.185 25.4221 32.4818L24.4895 33.1752ZM45.1912 32.1579C44.9807 32.5086 44.7536 32.8481 44.5108 33.1752L43.5782 32.4818C43.7984 32.185 44.0044 31.8771 44.1953 31.5591L45.1912 32.1579ZM26.1305 34.9866C25.8284 34.7123 25.5398 34.4234 25.2658 34.121L26.1264 33.3398C26.375 33.6142 26.6369 33.8763 26.911 34.1251L26.1305 34.9866ZM43.7345 34.121C43.4605 34.4234 43.1719 34.7123 42.8698 34.9866L42.0893 34.1251C42.3634 33.8763 42.6253 33.6142 42.8739 33.3398L43.7345 34.121ZM28.0917 36.4447C27.7414 36.2341 27.4022 36.0067 27.0754 35.7637L27.7682 34.8301C28.0647 35.0506 28.3722 35.2568 28.69 35.4478L28.0917 36.4447ZM41.9249 35.7637C41.5981 36.0067 41.2589 36.2341 40.9086 36.4447L40.3103 35.4478C40.6281 35.2568 40.9356 35.0506 41.2321 34.8301L41.9249 35.7637ZM30.3003 37.492C29.9144 37.3537 29.5373 37.197 29.1701 37.0228L29.6675 35.9719C30.0004 36.1298 30.3421 36.2718 30.6917 36.397L30.3003 37.492ZM39.8302 37.0228C39.463 37.197 39.0859 37.3537 38.7 37.492L38.3086 36.397C38.6582 36.2718 38.9999 36.1298 39.3328 35.9719L39.8302 37.0228ZM32.6715 38.0848C32.2648 38.0249 31.8644 37.9453 31.4713 37.8471L31.7528 36.7188C32.1089 36.8078 32.4718 36.88 32.8406 36.9342L32.6715 38.0848ZM37.529 37.8471C37.1359 37.9453 36.7355 38.0249 36.3288 38.0848L36.1597 36.9342C36.5285 36.88 36.8914 36.8078 37.2475 36.7188L37.529 37.8471ZM34.5002 38.2182C34.2952 38.2182 34.0914 38.2133 33.8888 38.2034L33.9449 37.0419C34.1288 37.0508 34.3139 37.0553 34.5002 37.0553C34.6864 37.0553 34.8715 37.0508 35.0554 37.0419L35.1115 38.2034C34.9089 38.2133 34.7051 38.2182 34.5002 38.2182Z" fill="#112E51"/>
<path d="M44.7977 25.7431C44.7977 31.4359 40.1873 36.0508 34.5 36.0508C28.8128 36.0508 24.2024 31.4359 24.2024 25.7431C24.2024 20.0503 28.8128 15.4354 34.5 15.4354C40.1873 15.4354 44.7977 20.0503 44.7977 25.7431Z" fill="#112E51"/>
<path d="M33.735 19.0763L31.9947 22.5616L28.101 23.1222C27.4027 23.2223 27.1229 24.0725 27.6293 24.5595L30.4463 27.2708L29.78 31.1009C29.6601 31.7932 30.3983 32.3118 31.0166 31.988L34.4999 30.1796L37.9831 31.988C38.6014 32.3092 39.3397 31.7932 39.2198 31.1009L38.5535 27.2708L41.3705 24.5595C41.8769 24.0725 41.597 23.2223 40.8988 23.1222L37.0051 22.5616L35.2648 19.0763C34.9529 18.4551 34.0495 18.4472 33.735 19.0763Z" fill="white"/>
<path fill-rule="evenodd" clip-rule="evenodd" d="M34.5 69C15.4473 69 0 53.5549 0 34.5H2.32358C2.32358 52.2682 16.7283 66.6742 34.5 66.6742C52.2717 66.6742 66.6764 52.2682 66.6764 34.5H69C69 53.5549 53.5527 69 34.5 69Z" fill="#A8B6C6"/>
</svg>

<svg width="69" height="69" fill="none" xmlns="http://www.w3.org/2000/svg"><path d="M67.838 34.5c0 18.412-14.926 33.337-33.338 33.337S1.162 52.912 1.162 34.5c0-18.412 14.926-33.337 33.338-33.337S67.838 16.088 67.838 34.5z" fill="#EBF3FA"/><path fill-rule="evenodd" clip-rule="evenodd" d="M0 34.5C0 15.445 15.447 0 34.5 0S69 15.445 69 34.5h-2.324c0-17.768-14.404-32.174-32.176-32.174-17.772 0-32.176 14.406-32.176 32.174H0z" fill="#A8B6C6"/><path d="M5.708 25.514h56.826v25.902c0 3.21-2.6 5.814-5.809 5.814H11.517a5.812 5.812 0 01-5.81-5.814V25.514z" fill="#fff"/><path d="M6.908 13.665a4.65 4.65 0 014.647-4.652h45.89a4.65 4.65 0 014.647 4.652v6.713H6.908v-6.713z" fill="#EBF3FA"/><path fill-rule="evenodd" clip-rule="evenodd" d="M11.517 6.818a6.974 6.974 0 00-6.971 6.978v33.41a32.432 32.432 0 002.331 4.481 4.726 4.726 0 01-.008-.272V13.796a4.65 4.65 0 014.648-4.652h45.966a4.65 4.65 0 014.647 4.652v37.619c0 .092-.003.183-.008.273a32.437 32.437 0 002.332-4.48V13.796a6.974 6.974 0 00-6.971-6.978H11.517zm45.057 51.574a32.722 32.722 0 002.534-2.618 4.633 4.633 0 01-1.625.292H11.517a4.632 4.632 0 01-1.624-.291 32.433 32.433 0 002.534 2.617h44.147z" fill="#112E51"/><path d="M24.994 43.61c0 .642.52 1.163 1.162 1.163h16.688c.641 0 1.162-.52 1.162-1.163v-.846c0-.642-.52-1.163-1.162-1.163H26.156c-.641 0-1.162.521-1.162 1.163v.846zm1.585 4.757c0 .642.52 1.163 1.162 1.163H41.26c.641 0 1.162-.521 1.162-1.163v-.846c0-.642-.52-1.163-1.162-1.163H27.74c-.64 0-1.161.52-1.161 1.163v.846z" fill="#A8B6C6"/><path fill-rule="evenodd" clip-rule="evenodd" d="M33.889 13.283a12.653 12.653 0 011.222 0l-.056 1.162a11.485 11.485 0 00-1.11 0l-.056-1.162zm-2.418.356c.393-.098.794-.177 1.2-.237l.17 1.15c-.37.055-.732.127-1.088.216l-.282-1.129zm4.858-.237c.407.06.807.14 1.2.237l-.282 1.129a11.235 11.235 0 00-1.087-.216l.169-1.15zm-7.159 1.062c.367-.175.744-.331 1.13-.47l.392 1.095c-.35.126-.692.268-1.024.425l-.498-1.05zm9.53-.47c.386.139.763.296 1.13.47l-.497 1.05c-.333-.157-.675-.3-1.024-.425l.391-1.095zm-11.625 1.729c.327-.243.666-.47 1.017-.681l.598.997c-.318.19-.625.397-.922.617l-.693-.933zm13.834-.681c.35.21.69.438 1.016.68l-.693.934c-.296-.22-.604-.426-.922-.617l.599-.997zm-15.643 2.323c.274-.302.562-.59.865-.865l.78.861c-.274.25-.536.511-.785.786l-.86-.782zM42.87 16.5c.302.274.59.563.864.865l-.86.782c-.249-.275-.51-.537-.785-.786l.78-.861zm-19.06 2.829c.21-.351.437-.69.68-1.018l.932.694c-.22.296-.426.604-.617.922l-.996-.598zm20.7-1.018c.244.327.47.667.681 1.018l-.996.598c-.19-.318-.397-.626-.617-.922l.933-.694zM22.764 21.54c.138-.386.295-.764.468-1.131l1.05.498c-.157.333-.3.675-.424 1.025l-1.094-.392zm23.006-1.131c.174.367.33.745.468 1.131l-1.093.392c-.126-.35-.267-.692-.425-1.025l1.05-.498zm-23.6 3.504c.06-.407.139-.808.237-1.202l1.127.282c-.089.357-.16.72-.215 1.09l-1.15-.17zm24.421-1.202c.098.394.178.795.238 1.202l-1.15.17a11.17 11.17 0 00-.215-1.09l1.127-.282zm-24.555 3.032c0-.205.005-.409.015-.612l1.16.056a11.506 11.506 0 000 1.112l-1.16.056c-.01-.203-.015-.407-.015-.612zm24.911-.612a12.676 12.676 0 010 1.224l-1.16-.056a11.51 11.51 0 000-1.111l1.16-.057zm-24.54 3.644a12.458 12.458 0 01-.237-1.201l1.15-.17c.053.37.125.733.214 1.09l-1.127.281zm24.422-1.201a12.5 12.5 0 01-.238 1.201l-1.127-.282c.089-.356.161-.72.215-1.089l1.15.17zm-23.598 3.504a12.43 12.43 0 01-.47-1.13l1.095-.393c.125.35.267.692.425 1.026l-1.05.497zm23.005-1.13a12.43 12.43 0 01-.468 1.13l-1.05-.497c.157-.334.3-.676.425-1.026l1.093.392zM24.49 33.174a12.5 12.5 0 01-.68-1.017l.996-.599c.19.318.397.626.617.923l-.933.693zm20.702-1.017c-.21.35-.437.69-.68 1.017l-.933-.693c.22-.297.426-.605.617-.923l.996.599zm-19.06 2.829a12.619 12.619 0 01-.865-.866l.86-.781c.249.274.51.536.785.785l-.78.862zm17.603-.866c-.273.302-.562.591-.864.866l-.78-.862c.273-.249.535-.51.784-.785l.86.781zm-15.642 2.324c-.35-.21-.69-.438-1.017-.681l.693-.934c.297.22.604.427.922.618l-.598.997zm13.833-.681c-.327.243-.666.47-1.016.68l-.599-.996c.318-.191.626-.397.922-.618l.693.934zM30.3 37.492a12.386 12.386 0 01-1.13-.47l.497-1.05c.333.158.675.3 1.025.425l-.392 1.095zm9.53-.47a12.05 12.05 0 01-1.13.47l-.391-1.095c.35-.125.69-.267 1.024-.425l.497 1.05zm-7.158 1.063a12.42 12.42 0 01-1.2-.238l.28-1.128c.357.089.72.161 1.089.215l-.17 1.15zm4.857-.238c-.393.098-.794.178-1.2.238l-.17-1.15c.37-.055.732-.127 1.089-.216l.281 1.128zm-3.029.371c-.205 0-.409-.005-.611-.015l.056-1.161a11.486 11.486 0 001.11 0l.056 1.161c-.202.01-.406.015-.61.015z" fill="#112E51"/><path d="M44.798 25.743c0 5.693-4.61 10.308-10.298 10.308-5.687 0-10.298-4.615-10.298-10.308s4.61-10.308 10.298-10.308c5.687 0 10.298 4.615 10.298 10.308z" fill="#112E51"/><path d="M33.735 19.076l-1.74 3.486-3.894.56c-.698.1-.978.95-.472 1.438l2.817 2.71-.666 3.83c-.12.693.618 1.212 1.237.888L34.5 30.18l3.483 1.808c.618.321 1.357-.195 1.237-.887l-.666-3.83 2.816-2.712c.507-.486.227-1.337-.471-1.437l-3.894-.56-1.74-3.486c-.312-.62-1.215-.629-1.53 0z" fill="#fff"/><path fill-rule="evenodd" clip-rule="evenodd" d="M34.5 69C15.447 69 0 53.555 0 34.5h2.324c0 17.768 14.404 32.174 32.176 32.174 17.772 0 32.176-14.406 32.176-32.174H69C69 53.555 53.553 69 34.5 69z" fill="#A8B6C6"/></svg>
